TGraph/docu_c48.svg

<svg xmlns="http://www.w3.org/2000/svg" viewBox="0 0 1200 800" preserveAspectRatio="none" width="1200" height="800">
 <path d="M0,0H1200V800H0Z" style="fill: white;"></path>
 <g>
  <svg viewBox="0 0 576 784" preserveAspectRatio="none" x="12" y="8" width="576" height="784">
   <path d="M0,0H576V784H0Z" style="fill: white;"></path>
   <g>
    <g transform="translate(58,78)">
     <path d="M0,0H461V627H0Z" style="fill: white; stroke: black; stroke-width: 1;"></path>
     <svg x="0" y="0" overflow="hidden" width="461" height="627" viewBox="0 0 461 627">
      <g>
       <path d="M115.25,548.63C118.97,541.03,225.93,325.94,230.5,313.5S344.22,-73.18,345.75,-78.38" style="stroke: black; stroke-width: 1; fill: none;"></path>
       <g transform="translate(115,549)">
        <path style="stroke: black; stroke-width: 1; fill: none;" d="M0,0V392m3,0h-6M0,0V-392m3,0h-6"></path>
       </g>
       <g transform="translate(231,314)">
        <path style="stroke: black; stroke-width: 1; fill: none;" d="M0,0V392m3,0h-6M0,0V-392m3,0h-6"></path>
       </g>
       <path d="M115,549h1M231,314h1" style="stroke: black; fill: none;"></path>
      </g>
     </svg>
     <g>
      <g transform="translate(0,627)">
       <path d="M0,0h461M0,-24v24m12,-12v12m11,-12v12m12,-12v12m11,-12v12m12,-24v24m11,-12v12m12,-12v12m11,-12v12m12,-12v12m11,-24v24m12,-12v12m11,-12v12m12,-12v12m11,-12v12m12,-24v24m11,-12v12m12,-12v12m11,-12v12m12,-12v12m12,-24v24m11,-12v12m12,-12v12m11,-12v12m12,-12v12m11,-24v24m12,-12v12m11,-12v12m12,-12v12m11,-12v12m12,-24v24m11,-12v12m12,-12v12m11,-12v12m12,-12v12m11,-24v24m12,-12v12m11,-12v12m12,-12v12m11,-12v12m12,-24v24" style="stroke: black; stroke-width: 1;"></path>
       <g font-family="Arial" font-size="20" space="preserve" fill="black" text-anchor="middle">
        <text dy=".8em" transform="translate(0,5)">
         0
        </text>
        <text dy=".8em" transform="translate(58,5)">
         0.5
        </text>
        <text dy=".8em" transform="translate(115,5)">
         1
        </text>
        <text dy=".8em" transform="translate(173,5)">
         1.5
        </text>
        <text dy=".8em" transform="translate(231,5)">
         2
        </text>
        <text dy=".8em" transform="translate(288,5)">
         2.5
        </text>
        <text dy=".8em" transform="translate(346,5)">
         3
        </text>
        <text dy=".8em" transform="translate(403,5)">
         3.5
        </text>
        <text dy=".8em" transform="translate(461,5)">
         4
        </text>
       </g>
      </g>
      <g>
       <path d="M0,0v627M17,627h-17m9,-16h-9m9,-15h-9m9,-16h-9m9,-16h-9m17,-15h-17m9,-16h-9m9,-16h-9m9,-15h-9m9,-16h-9m17,-16h-17m9,-15h-9m9,-16h-9m9,-16h-9m9,-15h-9m17,-16h-17m9,-16h-9m9,-15h-9m9,-16h-9m9,-16h-9m17,-15h-17m9,-16h-9m9,-16h-9m9,-16h-9m9,-15h-9m17,-16h-17m9,-16h-9m9,-15h-9m9,-16h-9m9,-16h-9m17,-15h-17m9,-16h-9m9,-16h-9m9,-15h-9m9,-16h-9m17,-16h-17m9,-15h-9m9,-16h-9m9,-16h-9m9,-15h-9m17,-16h-17" style="stroke: black; stroke-width: 1;"></path>
       <g font-family="Arial" font-size="20" space="preserve" fill="black" text-anchor="end">
        <text dy=".4em" transform="translate(-3,627)">
         0
        </text>
        <text dy=".4em" transform="translate(-3,549)">
         1
        </text>
        <text dy=".4em" transform="translate(-3,470)">
         2
        </text>
        <text dy=".4em" transform="translate(-3,392)">
         3
        </text>
        <text dy=".4em" transform="translate(-3,314)">
         4
        </text>
        <text dy=".4em" transform="translate(-3,235)">
         5
        </text>
        <text dy=".4em" transform="translate(-3,157)">
         6
        </text>
        <text dy=".4em" transform="translate(-3,78)">
         7
        </text>
        <text dy=".4em" transform="translate(-3)">
         8
        </text>
       </g>
      </g>
     </g>
    </g>
   </g>
  </svg>
  <svg viewBox="0 0 576 784" preserveAspectRatio="none" x="612" y="8" width="576" height="784">
   <path d="M0,0H576V784H0Z" style="fill: white;"></path>
   <g>
    <g transform="translate(58,78)">
     <path d="M0,0H461V627H0Z" style="fill: white; stroke: black; stroke-width: 1;"></path>
     <svg x="0" y="0" overflow="hidden" width="461" height="627" viewBox="0 0 461 627">
      <g>
       <path d="M115.25,548.63C118.97,541.03,225.93,325.94,230.5,313.5S344.22,-73.18,345.75,-78.38" style="stroke: black; stroke-width: 1; fill: none;"></path>
       <g transform="translate(115,549)">
        <path style="stroke: black; stroke-width: 1; fill: none;" d="M0,0V392m3,0h-6M0,0V-392m3,0h-6"></path>
       </g>
       <g transform="translate(231,314)">
        <path style="stroke: black; stroke-width: 1; fill: none;" d="M0,0V392m3,0h-6M0,0V-392m3,0h-6"></path>
       </g>
       <g transform="translate(346,-78)">
        <path style="stroke: black; stroke-width: 1; fill: none;" d="M0,0V392m3,0h-6M0,0V-392m3,0h-6"></path>
       </g>
       <path d="M115,549h1M231,314h1" style="stroke: black; fill: none;"></path>
      </g>
     </svg>
     <g>
      <g transform="translate(0,627)">
       <path d="M0,0h461M0,-24v24m12,-12v12m11,-12v12m12,-12v12m11,-12v12m12,-24v24m11,-12v12m12,-12v12m11,-12v12m12,-12v12m11,-24v24m12,-12v12m11,-12v12m12,-12v12m11,-12v12m12,-24v24m11,-12v12m12,-12v12m11,-12v12m12,-12v12m12,-24v24m11,-12v12m12,-12v12m11,-12v12m12,-12v12m11,-24v24m12,-12v12m11,-12v12m12,-12v12m11,-12v12m12,-24v24m11,-12v12m12,-12v12m11,-12v12m12,-12v12m11,-24v24m12,-12v12m11,-12v12m12,-12v12m11,-12v12m12,-24v24" style="stroke: black; stroke-width: 1;"></path>
       <g font-family="Arial" font-size="20" space="preserve" fill="black" text-anchor="middle">
        <text dy=".8em" transform="translate(0,5)">
         0
        </text>
        <text dy=".8em" transform="translate(58,5)">
         0.5
        </text>
        <text dy=".8em" transform="translate(115,5)">
         1
        </text>
        <text dy=".8em" transform="translate(173,5)">
         1.5
        </text>
        <text dy=".8em" transform="translate(231,5)">
         2
        </text>
        <text dy=".8em" transform="translate(288,5)">
         2.5
        </text>
        <text dy=".8em" transform="translate(346,5)">
         3
        </text>
        <text dy=".8em" transform="translate(403,5)">
         3.5
        </text>
        <text dy=".8em" transform="translate(461,5)">
         4
        </text>
       </g>
      </g>
      <g>
       <path d="M0,0v627M17,627h-17m9,-16h-9m9,-15h-9m9,-16h-9m9,-16h-9m17,-15h-17m9,-16h-9m9,-16h-9m9,-15h-9m9,-16h-9m17,-16h-17m9,-15h-9m9,-16h-9m9,-16h-9m9,-15h-9m17,-16h-17m9,-16h-9m9,-15h-9m9,-16h-9m9,-16h-9m17,-15h-17m9,-16h-9m9,-16h-9m9,-16h-9m9,-15h-9m17,-16h-17m9,-16h-9m9,-15h-9m9,-16h-9m9,-16h-9m17,-15h-17m9,-16h-9m9,-16h-9m9,-15h-9m9,-16h-9m17,-16h-17m9,-15h-9m9,-16h-9m9,-16h-9m9,-15h-9m17,-16h-17" style="stroke: black; stroke-width: 1;"></path>
       <g font-family="Arial" font-size="20" space="preserve" fill="black" text-anchor="end">
        <text dy=".4em" transform="translate(-3,627)">
         0
        </text>
        <text dy=".4em" transform="translate(-3,549)">
         1
        </text>
        <text dy=".4em" transform="translate(-3,470)">
         2
        </text>
        <text dy=".4em" transform="translate(-3,392)">
         3
        </text>
        <text dy=".4em" transform="translate(-3,314)">
         4
        </text>
        <text dy=".4em" transform="translate(-3,235)">
         5
        </text>
        <text dy=".4em" transform="translate(-3,157)">
         6
        </text>
        <text dy=".4em" transform="translate(-3,78)">
         7
        </text>
        <text dy=".4em" transform="translate(-3)">
         8
        </text>
       </g>
      </g>
     </g>
    </g>
   </g>
  </svg>
 </g>
</svg>

<svg xmlns="http://www.w3.org/2000/svg" viewBox="0 0 1200 800" preserveAspectRatio="none" width="1200" height="800">
 <path d="M0,0H1200V800H0Z" style="fill: white;"></path>
 <g>
  <svg viewBox="0 0 576 784" preserveAspectRatio="none" x="12" y="8" width="576" height="784">
   <path d="M0,0H576V784H0Z" style="fill: white;"></path>
   <g>
    <g transform="translate(58,78)">
     <path d="M0,0H461V627H0Z" style="fill: white; stroke: black; stroke-width: 1;"></path>
     <svg x="0" y="0" overflow="hidden" width="461" height="627" viewBox="0 0 461 627">
      <g>
       <path d="M115.25,548.63C118.97,541.03,225.93,325.94,230.5,313.5S344.22,-73.18,345.75,-78.38" style="stroke: black; stroke-width: 1; fill: none;"></path>
       <g transform="translate(115,549)">
        <path style="stroke: black; stroke-width: 1; fill: none;" d="M0,0V392m3,0h-6M0,0V-392m3,0h-6"></path>
       </g>
       <g transform="translate(231,314)">
        <path style="stroke: black; stroke-width: 1; fill: none;" d="M0,0V392m3,0h-6M0,0V-392m3,0h-6"></path>
       </g>
       <path d="M115,549h1M231,314h1" style="stroke: black; fill: none;"></path>
      </g>
     </svg>
     <g>
      <g transform="translate(0,627)">
       <path d="M0,0h461M0,-24V0M12,-12V0M23,-12V0M35,-12V0M46,-12V0M58,-24V0M69,-12V0M81,-12V0M92,-12V0M104,-12V0M115,-24V0M127,-12V0M138,-12V0M150,-12V0M161,-12V0M173,-24V0M184,-12V0M196,-12V0M207,-12V0M219,-12V0M231,-24V0M242,-12V0M254,-12V0M265,-12V0M277,-12V0M288,-24V0M300,-12V0M311,-12V0M323,-12V0M334,-12V0M346,-24V0M357,-12V0M369,-12V0M380,-12V0M392,-12V0M403,-24V0M415,-12V0M426,-12V0M438,-12V0M449,-12V0M461,-24V0" style="stroke: black; stroke-width: 1;"></path>
       <g font-family="Arial" font-size="20" space="preserve" fill="black" text-anchor="middle">
        <text dy=".8em" transform="translate(0,5)">
         0
        </text>
        <text dy=".8em" transform="translate(58,5)">
         0.5
        </text>
        <text dy=".8em" transform="translate(115,5)">
         1
        </text>
        <text dy=".8em" transform="translate(173,5)">
         1.5
        </text>
        <text dy=".8em" transform="translate(231,5)">
         2
        </text>
        <text dy=".8em" transform="translate(288,5)">
         2.5
        </text>
        <text dy=".8em" transform="translate(346,5)">
         3
        </text>
        <text dy=".8em" transform="translate(403,5)">
         3.5
        </text>
        <text dy=".8em" transform="translate(461,5)">
         4
        </text>
       </g>
      </g>
      <g>
       <path d="M0,0v627M17,627H0M9,611H0M9,596H0M9,580H0M9,564H0M17,549H0M9,533H0M9,517H0M9,502H0M9,486H0M17,470H0M9,455H0M9,439H0M9,423H0M9,408H0M17,392H0M9,376H0M9,361H0M9,345H0M9,329H0M17,314H0M9,298H0M9,282H0M9,266H0M9,251H0M17,235H0M9,219H0M9,204H0M9,188H0M9,172H0M17,157H0M9,141H0M9,125H0M9,110H0M9,94H0M17,78H0M9,63H0M9,47H0M9,31H0M9,16H0M17,0H0" style="stroke: black; stroke-width: 1;"></path>
       <g font-family="Arial" font-size="20" space="preserve" fill="black" text-anchor="end">
        <text dy=".4em" transform="translate(-3,627)">
         0
        </text>
        <text dy=".4em" transform="translate(-3,549)">
         1
        </text>
        <text dy=".4em" transform="translate(-3,470)">
         2
        </text>
        <text dy=".4em" transform="translate(-3,392)">
         3
        </text>
        <text dy=".4em" transform="translate(-3,314)">
         4
        </text>
        <text dy=".4em" transform="translate(-3,235)">
         5
        </text>
        <text dy=".4em" transform="translate(-3,157)">
         6
        </text>
        <text dy=".4em" transform="translate(-3,78)">
         7
        </text>
        <text dy=".4em" transform="translate(-3)">
         8
        </text>
       </g>
      </g>
     </g>
    </g>
   </g>
  </svg>
  <svg viewBox="0 0 576 784" preserveAspectRatio="none" x="612" y="8" width="576" height="784">
   <path d="M0,0H576V784H0Z" style="fill: white;"></path>
   <g>
    <g transform="translate(58,78)">
     <path d="M0,0H461V627H0Z" style="fill: white; stroke: black; stroke-width: 1;"></path>
     <svg x="0" y="0" overflow="hidden" width="461" height="627" viewBox="0 0 461 627">
      <g>
       <path d="M115.25,548.63C118.97,541.03,225.93,325.94,230.5,313.5S344.22,-73.18,345.75,-78.38" style="stroke: black; stroke-width: 1; fill: none;"></path>
       <g transform="translate(115,549)">
        <path style="stroke: black; stroke-width: 1; fill: none;" d="M0,0V392m3,0h-6M0,0V-392m3,0h-6"></path>
       </g>
       <g transform="translate(231,314)">
        <path style="stroke: black; stroke-width: 1; fill: none;" d="M0,0V392m3,0h-6M0,0V-392m3,0h-6"></path>
       </g>
       <g transform="translate(346,-78)">
        <path style="stroke: black; stroke-width: 1; fill: none;" d="M0,0V392m3,0h-6M0,0V-392m3,0h-6"></path>
       </g>
       <path d="M115,549h1M231,314h1" style="stroke: black; fill: none;"></path>
      </g>
     </svg>
     <g>
      <g transform="translate(0,627)">
       <path d="M0,0h461M0,-24V0M12,-12V0M23,-12V0M35,-12V0M46,-12V0M58,-24V0M69,-12V0M81,-12V0M92,-12V0M104,-12V0M115,-24V0M127,-12V0M138,-12V0M150,-12V0M161,-12V0M173,-24V0M184,-12V0M196,-12V0M207,-12V0M219,-12V0M231,-24V0M242,-12V0M254,-12V0M265,-12V0M277,-12V0M288,-24V0M300,-12V0M311,-12V0M323,-12V0M334,-12V0M346,-24V0M357,-12V0M369,-12V0M380,-12V0M392,-12V0M403,-24V0M415,-12V0M426,-12V0M438,-12V0M449,-12V0M461,-24V0" style="stroke: black; stroke-width: 1;"></path>
       <g font-family="Arial" font-size="20" space="preserve" fill="black" text-anchor="middle">
        <text dy=".8em" transform="translate(0,5)">
         0
        </text>
        <text dy=".8em" transform="translate(58,5)">
         0.5
        </text>
        <text dy=".8em" transform="translate(115,5)">
         1
        </text>
        <text dy=".8em" transform="translate(173,5)">
         1.5
        </text>
        <text dy=".8em" transform="translate(231,5)">
         2
        </text>
        <text dy=".8em" transform="translate(288,5)">
         2.5
        </text>
        <text dy=".8em" transform="translate(346,5)">
         3
        </text>
        <text dy=".8em" transform="translate(403,5)">
         3.5
        </text>
        <text dy=".8em" transform="translate(461,5)">
         4
        </text>
       </g>
      </g>
      <g>
       <path d="M0,0v627M17,627H0M9,611H0M9,596H0M9,580H0M9,564H0M17,549H0M9,533H0M9,517H0M9,502H0M9,486H0M17,470H0M9,455H0M9,439H0M9,423H0M9,408H0M17,392H0M9,376H0M9,361H0M9,345H0M9,329H0M17,314H0M9,298H0M9,282H0M9,266H0M9,251H0M17,235H0M9,219H0M9,204H0M9,188H0M9,172H0M17,157H0M9,141H0M9,125H0M9,110H0M9,94H0M17,78H0M9,63H0M9,47H0M9,31H0M9,16H0M17,0H0" style="stroke: black; stroke-width: 1;"></path>
       <g font-family="Arial" font-size="20" space="preserve" fill="black" text-anchor="end">
        <text dy=".4em" transform="translate(-3,627)">
         0
        </text>
        <text dy=".4em" transform="translate(-3,549)">
         1
        </text>
        <text dy=".4em" transform="translate(-3,470)">
         2
        </text>
        <text dy=".4em" transform="translate(-3,392)">
         3
        </text>
        <text dy=".4em" transform="translate(-3,314)">
         4
        </text>
        <text dy=".4em" transform="translate(-3,235)">
         5
        </text>
        <text dy=".4em" transform="translate(-3,157)">
         6
        </text>
        <text dy=".4em" transform="translate(-3,78)">
         7
        </text>
        <text dy=".4em" transform="translate(-3)">
         8
        </text>
       </g>
      </g>
     </g>
    </g>
   </g>
  </svg>
 </g>
</svg>
